X: 154
T:Skipper Lost His Guernsey
R:Jig
Z:Robert Crosbie s
M:6/8
L:1/8
K:G
G2A|BdB BAG|F2G A2B|c2A ABc|d2B G2A|BdB BAG|F2G A2g|
e2d cAF|G3::GBd|e2d efg|f2e d2d|e2A ABc|
d2B GBd|e2d efg|f2e d2f|e2A ABA|G3:|
